svgs/sharp-light/ski-boot.svg

<svg xmlns="http://www.w3.org/2000/svg" viewBox="0 0 512 512"><!--! Font Awesome Pro 6.6.0 by @fontawesome - https://fontawesome.com License - https://fontawesome.com/license (Commercial License) Copyright 2024 Fonticons, Inc. --><path d="M348.6 32l6.2-32 32.6 0L330 295.4l141.5 74.5 8.5 4.5 0 9.7 0 96 16 0 16 0 0 32-16 0-32 0L24 512 4.9 512l3.4-18.8 80-448L90.6 32 104 32l244.6 0zM185.3 64l-67.9 0L80.3 272l63.4 0L185.3 64zm32.6 0L172.5 291.1 169.9 304l-13.1 0-82.3 0L43.1 480 448 480l0-86.3L308 320l-4 0-64 0-16 0 0-32 16 0 58.8 0 12.4-64L272 224l-16 0 0-32 16 0 45.5 0L342.4 64 217.9 64z"/></svg>

<svg xmlns="http://www.w3.org/2000/svg" viewBox="0 0 512 512"><!--! Font Awesome Pro 6.4.2 by @fontawesome - https://fontawesome.com License - https://fontawesome.com/license (Commercial License) Copyright 2023 Fonticons, Inc. --><path d="M348.6 32l6.2-32h32.6L330 295.4l141.5 74.5 8.5 4.5V384v96h16 16v32H496 464 24 4.9l3.4-18.8 80-448L90.6 32H104 348.6zM185.3 64H117.4L80.3 272h63.4L185.3 64zm32.6 0L172.5 291.1 169.9 304H156.8 74.5L43.1 480H448V393.7L308 320h-4H240 224V288h16 58.8l12.4-64H272 256V192h16 45.5L342.4 64H217.9z"/></svg>
